packages/icons/src/SVG/paste-solid.svg

<!-- Generated by IcoMoon.io -->
<svg version="1.1" xmlns="http://www.w3.org/2000/svg" width="12" height="12" viewBox="0 0 12 12">
<title>paste-solid</title>
<path d="M9 0v1h-1v1h-4v-1h-1v-1h6z"></path>
<path d="M3 1v2h6v-2h2v11h-10v-11h2z"></path>
</svg>

<svg width="12" height="12" viewBox="0 0 12 12" fill="none" xmlns="http://www.w3.org/2000/svg">
<path d="M9 0V1L8 1V2H4V1H3V0H9Z" fill="#4C505B"/>
<path d="M3 1V3L9 3V1L11 1V12H1V1H3Z" fill="#4C505B"/>
</svg>
